public/assets/images/icons/blue/refresh/folder-edit-empty2.svg

<svg width="16" height="16" xmlns="http://www.w3.org/2000/svg" viewBox="0 0 16 16" shape-rendering="geometricPrecision" fill="#24437c"><defs><mask id="a"><rect fill="#fff" width="100%" height="100%"/><path d="M17.514 2.671l-.862-.552L16.65-1h-2.866v.558A4.044 4.044 0 0 0 10.061.625c-1.569 1.569-1.554 4.141.035 5.732a4.084 4.084 0 0 0 2.901 1.205 3.98 3.98 0 0 0 2.831-1.168A3.973 3.973 0 0 0 17 3.557v-.886h.514zm-3.373.887c0 .22-.058.539-.333.813-.443.443-1.23.426-1.69-.035-.475-.475-.49-1.234-.036-1.689.011-.011.021-.022.033-.031v.922h2.026v.02z" fill="#000"/></mask></defs><path d="M13.114 2.537h2.538L15.651 0h-.867v1.105c-1.204-.927-2.924-.863-4.016.227-1.187 1.188-1.162 3.119.035 4.317 1.201 1.198 3.131 1.224 4.319.037A2.996 2.996 0 0 0 16 3.558l-.859.001a2.137 2.137 0 0 1-.627 1.521c-.843.842-2.231.836-3.104-.036-.871-.872-.877-2.26-.035-3.105.729-.727 1.86-.818 2.721-.268h-.983l.001.866z" fill="#cb1800"/><path mask="url(#a)" d="M7.394 4.755l-.816-1.923h-3.78l-.816 1.923H.861V14h14.278V4.755H7.394zm-1.226 8.237l-.081-.852.736.293-.655.559zm1.272-1.08l-1.443-.579L7.556 7.44 9 8.019l-1.56 3.893zm1.952-4.87l-.233.58-1.444-.58.232-.578a.778.778 0 0 1 1.445.578z"/></svg>

<?xml version="1.0"?><!DOCTYPE svg PUBLIC "-//W3C//DTD SVG 1.1//EN" "http://www.w3.org/Graphics/SVG/1.1/DTD/svg11.dtd"><svg width="16px" height="16px" xmlns="http://www.w3.org/2000/svg" viewBox="0 0 16 16" shape-rendering="geometricPrecision" fill="#24437c"><defs><mask id="refresh-path"><rect fill="#fff" width="100%" height="100%"/><path d="M17.514,2.671l-0.862-0.552L16.65-1h-2.866v0.558c-1.334-0.3-2.758,0.103-3.723,1.067 c-1.569,1.569-1.554,4.141,0.035,5.732c0.779,0.777,1.809,1.205,2.901,1.205c1.071,0,2.077-0.415,2.831-1.168 C16.585,5.639,17.001,4.631,17,3.557l0-0.886H17.514z M14.141,3.558c0,0.22-0.058,0.539-0.333,0.813 c-0.443,0.443-1.23,0.426-1.69-0.035c-0.475-0.475-0.49-1.234-0.036-1.689c0.011-0.011,0.021-0.022,0.033-0.031l0,0.922h2.026 V3.558z" fill="#000"/></mask></defs><path display="inline" d="M13.114,2.537h2.538L15.651,0h-0.867v1.105 c-1.204-0.927-2.924-0.863-4.016,0.227C9.581,2.52,9.606,4.451,10.803,5.649c1.201,1.198,3.131,1.224,4.319,0.037 C15.707,5.102,16.001,4.329,16,3.558l-0.859,0.001c-0.001,0.557-0.208,1.102-0.627,1.521c-0.843,0.842-2.231,0.836-3.104-0.036 c-0.871-0.872-0.877-2.26-0.035-3.105c0.729-0.727,1.86-0.818,2.721-0.268h-0.983L13.114,2.537z" fill="#cb1800"/><path mask="url(#refresh-path)" d="M7.394,4.755L6.578,2.832H2.798L1.982,4.755H0.861V14h14.278V4.755H7.394z M6.168,12.992 L6.087,12.14l0.736,0.293L6.168,12.992z M7.44,11.912l-1.443-0.579L7.556,7.44L9,8.019L7.44,11.912z M9.392,7.042l-0.233,0.58 l-1.444-0.58l0.232-0.578c0.163-0.396,0.612-0.588,1.01-0.428C9.354,6.193,9.548,6.644,9.392,7.042L9.392,7.042z"/></svg>
